X:177
T: Waise und Stiefmutter
N: Q1116D
O: Mitteleuropa, Schweiz
N: Melodievergleich zu Q0116, anderes Lied.
R: ???
M: 6/8
L: 1/16
K: G
D2 | G4B,2E4D2 | D2C2z6
C2 | A4C2E4DD | B,6-B,4
D2 | B4A2G4F2 | F2E2z6
E2 | D4DGF2E2F2 | G6-G4
D2 | B4A2G4F2 | F2E2z6
E2 | D4DGG2E2F2 | G6-G4

@@@ Tune index: 1470
